X: 43149
T: Winnipeg, The
R: reel
M: 4/4
K: Dmajor
AG|:F A2 F ABAF|G B2 G B2 ed|ABcd egfe|defd A2 AG|
F A2 F ABAF|G B2 G B2 ed|ABcd egfe|1 d2 f2 d2 AG:|2 d2 f2 d2 fg||
|:a2 f2 dcdf|gfed B4|gfed cABc|defg a2 fg|
a2 f2 dcdf|gfed B4|gfed cABc|1 d2 f2 d2 fg:|2 d2 f2 d2||

